extras/ComfyUI_INSTARAW/modules/detection_bypass/_luts/Shibuya_01.cube
# LUT by SparkleStock. Enhanced with VOXCOLOR algorithms.
LUT_3D_SIZE 5
DOMAIN_MIN 0.000000 0.000000 0.000000
DOMAIN_MAX 0.903226 0.903226 0.903226
0.066422 0.062515 0.058608
0.332648 0.086124 0.042554
0.647619 0.124259 0.043688
0.842184 0.155422 0.066044
0.922518 0.173855 0.093418
0.086817 0.218134 0.125527
0.350094 0.204518 0.084975
0.672684 0.205118 0.072729
0.857211 0.225618 0.096953
0.926953 0.241162 0.123313
0.138989 0.456891 0.243869
0.273531 0.490004 0.245157
0.672857 0.398574 0.144234
0.869973 0.394172 0.156994
0.933097 0.410365 0.186566
0.212982 0.690015 0.390271
0.280205 0.726450 0.419907
0.502866 0.711946 0.368685
0.853392 0.650938 0.277895
0.942901 0.655602 0.296718
0.278932 0.828059 0.522636
0.326403 0.850653 0.556589
0.443513 0.866543 0.548739
0.708234 0.867232 0.485142
0.935187 0.864508 0.439526
0.090047 0.084430 0.084178
0.332986 0.093588 0.102360
0.644694 0.129695 0.091648
0.846006 0.161225 0.104009
0.926384 0.179230 0.125873
0.101260 0.149411 0.143346
0.261822 0.218225 0.203763
0.583554 0.233713 0.179082
0.826252 0.247548 0.172982
0.924007 0.252367 0.182518
0.135456 0.358739 0.290722
0.255679 0.451638 0.357734
0.579686 0.434881 0.274407
0.834114 0.418533 0.248759
0.928331 0.416933 0.259545
0.204386 0.620234 0.469714
0.301979 0.693030 0.523041
0.471403 0.719927 0.510596
0.820228 0.667337 0.385299
0.937484 0.656542 0.379947
0.280857 0.801336 0.618286
0.362897 0.840189 0.653395
0.467466 0.867820 0.666814
0.685385 0.877153 0.620059
0.931106 0.867544 0.543055
0.118122 0.114687 0.118421
0.374521 0.113895 0.182873
0.648838 0.142590 0.197786
0.848950 0.172131 0.189597
0.929665 0.188626 0.196901
0.141902 0.157453 0.164965
0.291764 0.247554 0.271389
0.573317 0.254985 0.323339
0.822044 0.265639 0.293350
0.926641 0.268818 0.282464
0.151906 0.264561 0.278401
0.301683 0.382519 0.389066
0.491202 0.485230 0.479368
0.786414 0.462754 0.422598
0.921937 0.439836 0.391688
0.201107 0.529578 0.490945
0.340589 0.625309 0.573670
0.511391 0.707651 0.633334
0.788895 0.694071 0.549677
0.931064 0.669172 0.514528
0.276866 0.754698 0.667065
0.399065 0.811530 0.718826
0.541743 0.861885 0.758271
0.702753 0.883561 0.749352
0.927028 0.875215 0.676659
0.153468 0.155209 0.161668
0.398177 0.147779 0.271718
0.700804 0.169759 0.326836
0.860494 0.195540 0.340450
0.933526 0.209971 0.334659
0.191290 0.203155 0.212334
0.345847 0.300529 0.335538
0.644955 0.286108 0.435571
0.835004 0.294743 0.461031
0.930954 0.299610 0.439745
0.223382 0.281514 0.298022
0.376491 0.414012 0.423397
0.551359 0.530876 0.549534
0.795844 0.492024 0.594762
0.927972 0.469435 0.556198
0.231140 0.443575 0.465698
0.409209 0.562029 0.571208
0.589219 0.668648 0.669400
0.766007 0.726826 0.726284
0.925053 0.696427 0.678464
0.285665 0.690119 0.672831
0.450057 0.766671 0.741642
0.615741 0.834457 0.804540
0.761117 0.886322 0.848116
0.927774 0.889935 0.811190
0.199464 0.206121 0.215692
0.416407 0.198561 0.359434
0.710757 0.204221 0.458177
0.885051 0.227658 0.498832
0.939912 0.248167 0.518889
0.249538 0.266677 0.278260
0.407366 0.375144 0.412732
0.687034 0.345459 0.538249
0.875584 0.328364 0.600623
0.938512 0.346962 0.625009
0.306294 0.343137 0.356489
0.458904 0.483228 0.489215
0.621744 0.596439 0.620251
0.848742 0.520440 0.706655
0.938869 0.511248 0.733348
0.341334 0.459207 0.478487
0.518566 0.586951 0.594843
0.679578 0.700841 0.705729
0.816954 0.769162 0.800683
0.938845 0.726562 0.836181
0.341131 0.630174 0.651184
0.537723 0.727033 0.736349
0.708392 0.807663 0.814445
0.838818 0.873385 0.881869
0.936050 0.910111 0.921531
