extras/ComfyUI_INSTARAW/modules/detection_bypass/_luts/Shibuya_01.cube
# LUT by SparkleStock. Enhanced with VOXCOLOR algorithms.
LUT_3D_SIZE 8
DOMAIN_MIN 0.000000 0.000000 0.000000
DOMAIN_MAX 0.903226 0.903226 0.903226
0.066422 0.062515 0.058608
0.196999 0.072441 0.048462
0.379960 0.091032 0.040679
0.564355 0.113262 0.040978
0.715995 0.134405 0.049092
0.821616 0.151672 0.062295
0.885557 0.164418 0.077601
0.922518 0.173855 0.093418
0.073701 0.135964 0.088826
0.218821 0.121186 0.060351
0.400672 0.131260 0.052383
0.581139 0.148325 0.054049
0.729137 0.165498 0.063088
0.831598 0.179862 0.076859
0.892273 0.190587 0.092194
0.925008 0.198928 0.106973
0.091614 0.247028 0.138540
0.182261 0.263222 0.133005
0.408177 0.219923 0.082739
0.596914 0.217109 0.074463
0.740855 0.228075 0.084370
0.840005 0.238571 0.098711
0.897827 0.247745 0.114321
0.927606 0.256541 0.129103
0.121202 0.384789 0.206018
0.174608 0.417660 0.218512
0.340375 0.395536 0.180775
0.583211 0.343696 0.126383
0.752017 0.328387 0.116818
0.847882 0.334473 0.131840
0.903287 0.342215 0.148360
0.931011 0.352243 0.164265
0.159612 0.529347 0.285336
0.194768 0.563578 0.307357
0.296520 0.566864 0.292545
0.502089 0.525303 0.236500
0.723025 0.478544 0.186903
0.856115 0.461739 0.178960
0.909396 0.467659 0.196689
0.935676 0.478581 0.214414
0.202119 0.660018 0.369152
0.229164 0.687988 0.394873
0.292616 0.700717 0.395679
0.429495 0.688842 0.362093
0.640723 0.649410 0.302016
0.824692 0.616562 0.261047
0.916258 0.609084 0.259262
0.941375 0.619522 0.278934
0.243420 0.761369 0.450148
0.267348 0.781234 0.475968
0.309242 0.795243 0.485825
0.400330 0.798351 0.470772
0.554994 0.787578 0.429677
0.747943 0.764909 0.376935
0.892895 0.749958 0.346965
0.947447 0.754922 0.353797
0.278932 0.828059 0.522636
0.302661 0.841493 0.546635
0.334648 0.853655 0.559460
0.397535 0.863128 0.556246
0.508310 0.868205 0.534217
0.664291 0.867962 0.496289
0.827047 0.864311 0.457021
0.935187 0.864508 0.439526
0.079436 0.073985 0.071842
0.194074 0.076539 0.079626
0.375150 0.093451 0.067716
0.561694 0.115624 0.063121
0.716123 0.137101 0.068203
0.823736 0.154653 0.079698
0.888332 0.167506 0.093994
0.925022 0.176872 0.108801
0.082929 0.100816 0.096681
0.152550 0.135888 0.132922
0.323403 0.146558 0.117164
0.517664 0.160520 0.104500
0.687158 0.176427 0.102738
0.809400 0.189893 0.109224
0.883487 0.199215 0.119885
0.923342 0.204979 0.131211
0.094923 0.196568 0.156847
0.152048 0.246251 0.197422
0.335882 0.234948 0.152080
0.529929 0.235624 0.131585
0.696092 0.243380 0.129164
0.816263 0.250924 0.135163
0.888543 0.256605 0.145610
0.925740 0.261258 0.157068
0.119587 0.330131 0.236834
0.170448 0.384023 0.275915
0.298198 0.393295 0.253093
0.527224 0.359290 0.187786
0.709406 0.345485 0.164849
0.825163 0.347025 0.171155
0.894361 0.349811 0.182347
0.928952 0.354790 0.195133
0.155173 0.478852 0.327892
0.201690 0.529380 0.362894
0.279625 0.554564 0.364621
0.459467 0.533533 0.311051
0.684360 0.493181 0.243941
0.834433 0.473199 0.221296
0.900510 0.473501 0.233631
0.933155 0.479181 0.248404
0.197395 0.620337 0.421355
0.240608 0.662111 0.450932
0.292923 0.688461 0.464063
0.404228 0.691780 0.442880
0.604046 0.661074 0.376001
0.800019 0.626793 0.315354
0.907746 0.613288 0.299796
0.938555 0.618928 0.316631
0.241172 0.735975 0.509054
0.281314 0.766220 0.532953
0.321543 0.787284 0.549362
0.395327 0.799161 0.546096
0.529174 0.795871 0.511933
0.720742 0.773966 0.447771
0.879939 0.754302 0.399171
0.944994 0.754419 0.396808
0.281650 0.815672 0.584758
0.318135 0.834870 0.603661
0.353251 0.850037 0.619210
0.409103 0.863092 0.623351
0.505851 0.871820 0.608596
0.649112 0.873906 0.572329
0.814098 0.868867 0.522868
0.933493 0.865757 0.491910
0.093631 0.088014 0.088424
0.216701 0.086044 0.111292
0.376109 0.099040 0.113056
0.558448 0.119847 0.104556
0.715267 0.141011 0.102701
0.825075 0.158416 0.109058
0.890516 0.171019 0.119637
0.926809 0.180022 0.131871
0.101700 0.107894 0.110018
0.162445 0.152606 0.158483
0.317516 0.155874 0.173812
0.509865 0.166663 0.160330
0.682737 0.181821 0.149988
0.808392 0.195128 0.149774
0.884581 0.204360 0.155437
0.925095 0.209986 0.163297
0.105652 0.156056 0.155931
0.168131 0.211186 0.210197
0.281603 0.250424 0.243987
0.467397 0.259726 0.227212
0.651247 0.264401 0.208231
0.790608 0.269385 0.201145
0.877478 0.271482 0.201404
0.923222 0.270554 0.204404
0.122711 0.272741 0.242721
0.184104 0.331720 0.294939
0.274454 0.384902 0.333591
0.469343 0.379702 0.286914
0.657215 0.370442 0.253668
0.794983 0.367535 0.244864
0.881170 0.365003 0.244605
0.925532 0.363097 0.248590
0.152861 0.421971 0.346599
0.210546 0.478457 0.392833
0.288767 0.530928 0.428991
0.436915 0.537437 0.397783
0.646271 0.511075 0.331008
0.806009 0.491274 0.297218
0.888098 0.485575 0.298130
0.929712 0.484690 0.304876
0.192232 0.572264 0.451439
0.246600 0.620417 0.489846
0.316835 0.665412 0.520472
0.411690 0.685687 0.516865
0.586258 0.669367 0.459604
0.777718 0.639653 0.393597
0.896171 0.622112 0.366561
0.935097 0.621904 0.376078
0.236325 0.701770 0.547796
0.287231 0.738285 0.578065
0.351118 0.772411 0.602244
0.419065 0.793345 0.610456
0.530695 0.798475 0.589439
0.707456 0.781485 0.527968
0.868528 0.760592 0.471045
0.941971 0.756161 0.459785
0.280435 0.796278 0.628736
0.326602 0.820620 0.651683
0.383969 0.843695 0.670209
0.439754 0.860673 0.681133
0.521760 0.872903 0.676953
0.647076 0.878060 0.649902
0.805503 0.873329 0.599685
0.930249 0.868187 0.560762
0.109528 0.105124 0.107834
0.234874 0.098970 0.146384
0.405605 0.110158 0.162241
0.566364 0.127923 0.164648
0.714733 0.147521 0.159768
0.826314 0.164436 0.158183
0.892674 0.176591 0.162747
0.928688 0.185094 0.170946
0.122235 0.124847 0.128788
0.182635 0.173100 0.182562
0.349414 0.169363 0.219514
0.519241 0.176128 0.228475
0.682673 0.189788 0.218632
0.809694 0.202573 0.209800
0.886710 0.211696 0.208668
0.927068 0.217405 0.211827
0.130509 0.157403 0.165560
0.194852 0.216993 0.225309
0.293720 0.272102 0.286781
0.461359 0.275963 0.305886
0.642494 0.275750 0.290906
0.786660 0.279591 0.273324
0.877253 0.281184 0.265235
0.924825 0.279889 0.262195
0.135930 0.229681 0.235873
0.208379 0.293123 0.296558
0.297079 0.361026 0.358541
0.434982 0.394791 0.385004
0.611665 0.397754 0.367131
0.767301 0.391477 0.342009
0.868748 0.384638 0.327945
0.922718 0.376070 0.319816
0.156395 0.362083 0.343431
0.227945 0.423852 0.399071
0.316260 0.486882 0.452456
0.426759 0.534397 0.482707
0.606624 0.533640 0.443603
0.770882 0.517198 0.402560
0.871976 0.505484 0.387794
0.925450 0.496256 0.381311
0.190617 0.517946 0.461397
0.258036 0.572133 0.508384
0.341838 0.626105 0.551543
0.435160 0.670420 0.580817
0.581994 0.676364 0.550217
0.756875 0.656321 0.490493
0.881596 0.636912 0.454874
0.931350 0.629675 0.452746
0.232430 0.660023 0.568672
0.295793 0.702653 0.605967
0.374190 0.744412 0.639131
0.456674 0.780115 0.663809
0.555264 0.797145 0.660110
0.707611 0.788557 0.611396
0.859505 0.769952 0.555722
0.938995 0.761258 0.536311
0.277732 0.769904 0.657282
0.335861 0.799878 0.685315
0.407108 0.828903 0.710102
0.481136 0.854627 0.729561
0.557564 0.872127 0.736136
0.662025 0.880782 0.721300
0.805180 0.878211 0.678101
0.927794 0.872422 0.637454
0.127496 0.125385 0.130001
0.248588 0.116128 0.183813
0.429834 0.124945 0.215396
0.595535 0.141057 0.230050
0.726937 0.158539 0.233781
0.828001 0.174034 0.230398
0.895104 0.185554 0.227516
0.930665 0.193482 0.230705
0.144046 0.146723 0.152442
0.205319 0.198152 0.211170
0.382974 0.188522 0.264665
0.554743 0.190073 0.293122
0.696694 0.202189 0.299558
0.811040 0.214646 0.291887
0.888878 0.223363 0.282851
0.929130 0.228984 0.280431
0.159179 0.176479 0.185334
0.224022 0.240280 0.248926
0.323847 0.299050 0.318928
0.495074 0.293368 0.363742
0.656839 0.288686 0.374656
0.788527 0.292030 0.362111
0.879863 0.293482 0.345961
0.927402 0.292831 0.337248
0.167255 0.226101 0.241136
0.243859 0.294138 0.306805
0.334027 0.368249 0.377097
0.452160 0.417753 0.439983
0.608930 0.419656 0.459039
0.760784 0.407969 0.441915
0.867490 0.399679 0.417719
0.924518 0.389969 0.401728
0.174408 0.319500 0.332707
0.257927 0.387587 0.395703
0.354676 0.456981 0.458828
0.454466 0.523753 0.519562
0.591436 0.549512 0.539607
0.742167 0.543346 0.519704
0.859018 0.527479 0.490116
0.923080 0.511618 0.469873
0.196545 0.460437 0.452556
0.279316 0.521809 0.507486
0.374835 0.582186 0.560229
0.474082 0.638944 0.608774
0.587243 0.676741 0.630052
0.735141 0.677597 0.600613
0.863385 0.658504 0.559535
0.927072 0.642971 0.541910
0.233650 0.612886 0.573256
0.311653 0.662344 0.617136
0.401453 0.710245 0.658533
0.495430 0.755136 0.695534
0.589707 0.789319 0.718135
0.717378 0.796222 0.694904
0.852150 0.782993 0.647832
0.935700 0.770401 0.621206
0.277126 0.737366 0.672017
0.349607 0.773621 0.705024
0.432318 0.808193 0.736340
0.519063 0.840690 0.764074
0.601964 0.867438 0.784055
0.693086 0.882859 0.783992
0.814175 0.883876 0.752742
0.926856 0.878817 0.715972
0.148009 0.148923 0.155051
0.261673 0.138898 0.222097
0.442961 0.143846 0.270523
0.620133 0.157641 0.298562
0.751048 0.173618 0.312858
0.839606 0.188138 0.316867
0.897911 0.198961 0.313991
0.932916 0.206219 0.311839
0.168145 0.173249 0.180595
0.231707 0.228331 0.244125
0.410193 0.214848 0.311494
0.591010 0.209870 0.355223
0.727424 0.218248 0.378083
0.824175 0.230889 0.383474
0.891110 0.240460 0.376725
0.931355 0.245876 0.368739
0.189202 0.203350 0.212878
0.255997 0.270911 0.280025
0.355833 0.331548 0.355513
0.535251 0.317077 0.415135
0.690877 0.304681 0.448556
0.803195 0.308072 0.455473
0.882271 0.311875 0.444405
0.929981 0.311491 0.430194
0.206433 0.247142 0.261120
0.284195 0.319073 0.330322
0.372862 0.397475 0.405377
0.490222 0.448429 0.477410
0.641246 0.439738 0.523380
0.776342 0.423106 0.533344
0.870939 0.416744 0.517581
0.928159 0.407937 0.496469
0.213795 0.313589 0.334627
0.302712 0.386637 0.402315
0.401160 0.461339 0.471942
0.499256 0.534153 0.540992
0.614013 0.570803 0.597692
0.744170 0.566677 0.614286
0.856960 0.546662 0.594704
0.925330 0.529004 0.566311
0.221372 0.420893 0.439774
0.316541 0.489592 0.501257
0.419870 0.556308 0.561581
0.522556 0.619086 0.619253
0.618105 0.675744 0.672358
0.733674 0.694779 0.688901
0.849362 0.680691 0.667858
0.925148 0.659301 0.636951
0.244090 0.562172 0.562323
0.338119 0.619914 0.613127
0.439120 0.674391 0.661750
0.539799 0.724953 0.707186
0.634428 0.770238 0.747769
0.734552 0.798663 0.763299
0.844384 0.799984 0.743001
0.931455 0.783638 0.709966
0.283134 0.699977 0.673875
0.371212 0.743171 0.712271
0.465126 0.783607 0.749463
0.558892 0.821326 0.784173
0.647819 0.855452 0.814787
0.731516 0.881200 0.833217
0.830720 0.890831 0.821616
0.927450 0.887491 0.792466
0.171689 0.175808 0.183363
0.276800 0.167953 0.260789
0.451245 0.168096 0.325072
0.629611 0.177317 0.368367
0.769813 0.191290 0.392990
0.856914 0.205389 0.406674
0.905630 0.216764 0.411649
0.935495 0.224605 0.411407
0.195318 0.204276 0.213246
0.262500 0.264112 0.281631
0.433598 0.249944 0.358991
0.613894 0.237674 0.416584
0.756432 0.239126 0.451639
0.846645 0.249744 0.471056
0.899802 0.261417 0.476692
0.933853 0.269146 0.472817
0.221742 0.236727 0.247176
0.292015 0.308600 0.317954
0.390880 0.370516 0.396533
0.567978 0.349675 0.466723
0.726903 0.326696 0.513128
0.829874 0.325609 0.538359
0.892443 0.332778 0.544315
0.932687 0.336679 0.536338
0.247239 0.278745 0.291834
0.326803 0.354348 0.364318
0.414103 0.434690 0.441646
0.528270 0.484913 0.518161
0.680960 0.464927 0.575775
0.805765 0.439762 0.608583
0.882952 0.435576 0.614971
0.931600 0.432470 0.602379
0.265737 0.336462 0.354285
0.355674 0.412894 0.425109
0.451266 0.490435 0.498288
0.544244 0.566124 0.571386
0.654647 0.601270 0.636093
0.773401 0.587445 0.678000
0.870735 0.562961 0.686517
0.930206 0.550531 0.669257
0.271485 0.415769 0.439898
0.371852 0.489457 0.505703
0.475725 0.560508 0.571153
0.575261 0.627522 0.634739
0.664954 0.688872 0.694823
0.759331 0.713161 0.742086
0.855111 0.701234 0.755743
0.928141 0.678080 0.735098
0.277136 0.527314 0.548847
0.383302 0.592586 0.605618
0.490850 0.652936 0.660303
0.593369 0.708373 0.712158
0.685964 0.758247 0.760228
0.765990 0.801641 0.803137
0.850143 0.816523 0.818444
0.929221 0.799360 0.799133
0.299790 0.658976 0.663673
0.403901 0.710237 0.708049
0.507806 0.756933 0.750904
0.606637 0.799671 0.791333
0.696523 0.838179 0.828528
0.775429 0.872005 0.861048
0.853419 0.894250 0.875133
0.928324 0.898134 0.864428
0.199464 0.206121 0.215692
0.295810 0.202321 0.301116
0.459291 0.197258 0.378554
0.632277 0.200249 0.436072
0.774459 0.210635 0.472963
0.868010 0.224151 0.494816
0.916864 0.237422 0.509088
0.939912 0.248167 0.518889
0.226196 0.239797 0.250627
0.298133 0.305372 0.324181
0.456090 0.293694 0.407314
0.628610 0.274344 0.475410
0.771127 0.266664 0.522081
0.864958 0.271586 0.550843
0.914410 0.284050 0.569125
0.938862 0.296799 0.579353
0.257501 0.275727 0.287550
0.332705 0.352775 0.362162
0.429811 0.415990 0.442046
0.595314 0.392669 0.517796
0.749436 0.359716 0.573873
0.853819 0.347753 0.609020
0.910241 0.353486 0.630442
0.938420 0.364443 0.640245
0.290652 0.318481 0.331164
0.373085 0.398230 0.406759
0.459080 0.478945 0.484693
0.567351 0.527738 0.561942
0.712662 0.499565 0.626075
0.834905 0.461129 0.668767
0.903948 0.452694 0.693418
0.938647 0.457662 0.702366
0.319938 0.372089 0.386565
0.410497 0.451744 0.460349
0.502045 0.529617 0.534752
0.589495 0.604456 0.608190
0.692753 0.636389 0.675551
0.807179 0.610360 0.725760
0.894453 0.578020 0.755528
0.939139 0.571674 0.763899
0.338381 0.440245 0.458356
0.438017 0.516478 0.526980
0.536397 0.588512 0.594856
0.628021 0.656133 0.660757
0.709210 0.718327 0.723329
0.796086 0.738870 0.776606
0.879876 0.719681 0.812536
0.939005 0.695186 0.822152
0.340751 0.525490 0.548395
0.450087 0.594926 0.608859
0.555419 0.658138 0.667485
0.652058 0.715914 0.723255
0.736560 0.768241 0.775619
0.807701 0.814810 0.823736
0.874907 0.831651 0.861715
0.936729 0.814998 0.874446
0.341131 0.630174 0.651184
0.456286 0.688219 0.700572
0.564595 0.739709 0.748204
0.663011 0.786021 0.793012
0.749113 0.827657 0.834773
0.822139 0.864683 0.872838
0.882248 0.896661 0.906184
0.936050 0.910111 0.921531
