extras/ComfyUI_INSTARAW/modules/detection_bypass/_luts/Shibuya_01.cube
# LUT by SparkleStock. Enhanced with VOXCOLOR algorithms.
LUT_3D_SIZE 32
0.066422 0.062515 0.058608
0.099067 0.064997 0.056072
0.131711 0.067478 0.053535
0.164355 0.069959 0.050998
0.196999 0.072441 0.048462
0.238024 0.076309 0.046304
0.285336 0.081216 0.044429
0.332648 0.086124 0.042554
0.379960 0.091032 0.040679
0.427051 0.096057 0.039159
0.472819 0.101792 0.039765
0.518587 0.107527 0.040372
0.564355 0.113262 0.040978
0.610122 0.118996 0.041585
0.647619 0.124259 0.043688
0.681807 0.129332 0.046390
0.715995 0.134405 0.049092
0.750183 0.139478 0.051794
0.780480 0.144173 0.054795
0.801048 0.147922 0.058545
0.821616 0.151672 0.062295
0.842184 0.155422 0.066044
0.862752 0.159171 0.069794
0.874859 0.161881 0.073685
0.885557 0.164418 0.077601
0.896254 0.166954 0.081516
0.906952 0.169491 0.085431
0.915901 0.171815 0.089393
0.922518 0.173855 0.093418
0.929135 0.175895 0.097444
0.935752 0.177935 0.101469
0.942369 0.179976 0.105495
0.068242 0.080878 0.066163
0.101795 0.081815 0.062480
0.135348 0.082752 0.058798
0.168901 0.083690 0.055116
0.202454 0.084627 0.051434
0.243763 0.087599 0.048856
0.290888 0.092095 0.047106
0.338013 0.096592 0.045355
0.385138 0.101089 0.043605
0.432032 0.105720 0.042202
0.477538 0.111156 0.042883
0.523044 0.116592 0.043565
0.568551 0.122027 0.044246
0.614057 0.127463 0.044927
0.651328 0.132480 0.047087
0.685304 0.137329 0.049839
0.719281 0.142178 0.052591
0.753257 0.147027 0.055343
0.783349 0.151519 0.058387
0.803730 0.155119 0.062161
0.824111 0.158719 0.065936
0.844492 0.162320 0.069710
0.864874 0.165920 0.073485
0.876762 0.168523 0.077359
0.887236 0.170960 0.081249
0.897709 0.173397 0.085139
0.908183 0.175834 0.089029
0.916859 0.178095 0.092919
0.923140 0.180123 0.096807
0.929421 0.182151 0.100695
0.935702 0.184179 0.104584
0.941983 0.186207 0.108472
0.070062 0.099240 0.073717
0.104524 0.098633 0.068889
0.138986 0.098027 0.064062
0.173448 0.097420 0.059234
0.207910 0.096814 0.054407
0.249501 0.098888 0.051409
0.296439 0.102974 0.049783
0.343378 0.107060 0.048157
0.390316 0.111146 0.046531
0.437012 0.115382 0.045246
0.482257 0.120519 0.046002
0.527502 0.125656 0.046758
0.572747 0.130793 0.047514
0.617992 0.135930 0.048270
0.655037 0.140702 0.050487
0.688801 0.145326 0.053288
0.722566 0.149951 0.056090
0.756331 0.154576 0.058891
0.786218 0.158865 0.061978
0.806412 0.162316 0.065778
0.826607 0.165767 0.069577
0.846801 0.169218 0.073376
0.866996 0.172669 0.077176
0.878666 0.175165 0.081032
0.888915 0.177502 0.084897
0.899164 0.179840 0.088762
0.909414 0.182177 0.092628
0.917818 0.184376 0.096444
0.923763 0.186392 0.100196
0.929707 0.188407 0.103947
0.935652 0.190422 0.107698
0.941597 0.192438 0.111450
0.071882 0.117602 0.081271
0.107252 0.115452 0.075298
0.142623 0.113301 0.069325
0.177994 0.111150 0.063352
0.213365 0.109000 0.057379
0.255239 0.110178 0.053961
0.301991 0.113853 0.052460
0.348742 0.117528 0.050959
0.395494 0.121203 0.049457
0.441993 0.125044 0.048289
0.486976 0.129883 0.049120
0.531960 0.134721 0.049951
0.576943 0.139559 0.050781
0.621926 0.144397 0.051612
0.658745 0.148923 0.053886
0.692298 0.153324 0.056737
0.725851 0.157724 0.059589
0.759404 0.162125 0.062440
0.789087 0.166212 0.065569
0.809095 0.169513 0.069394
0.829103 0.172814 0.073218
0.849110 0.176116 0.077043
0.869118 0.179417 0.080867
0.880569 0.181807 0.084705
0.890594 0.184045 0.088545
0.900619 0.186282 0.092386
0.910645 0.188520 0.096226
0.918777 0.190657 0.099970
0.924385 0.192660 0.103584
0.929994 0.194663 0.107199
0.935602 0.196666 0.110813
0.941211 0.198669 0.114428
0.073701 0.135964 0.088826
0.109981 0.132270 0.081707
0.146261 0.128575 0.074589
0.182541 0.124881 0.067470
0.218821 0.121186 0.060351
0.260978 0.121468 0.056514
0.307542 0.124732 0.055137
0.354107 0.127996 0.053760
0.400672 0.131260 0.052383
0.446973 0.134707 0.051333
0.491695 0.139246 0.052238
0.536417 0.143785 0.053143
0.581139 0.148325 0.054049
0.625861 0.152864 0.054954
0.662454 0.157145 0.057285
0.695795 0.161321 0.060186
0.729137 0.165498 0.063088
0.762478 0.169674 0.065989
0.791956 0.173558 0.069161
0.811777 0.176710 0.073010
0.831598 0.179862 0.076859
0.851419 0.183014 0.080709
0.871240 0.186166 0.084558
0.882472 0.188449 0.088378
0.892273 0.190587 0.092194
0.902074 0.192725 0.096009
0.911875 0.194863 0.099825
0.919736 0.196938 0.103495
0.925008 0.198928 0.106973
0.930280 0.200919 0.110450
0.935552 0.202909 0.113928
0.940825 0.204900 0.117405
0.077222 0.160345 0.099500
0.111651 0.157334 0.092886
0.146079 0.154322 0.086273
0.180507 0.151311 0.079659
0.214935 0.148299 0.073046
0.257537 0.147338 0.068305
0.306271 0.147914 0.064968
0.355004 0.148491 0.061631
0.403737 0.149067 0.058294
0.451856 0.150148 0.055572
0.496295 0.154261 0.056545
0.540735 0.158373 0.057518
0.585174 0.162486 0.058491
0.629613 0.166598 0.059464
0.665964 0.170546 0.061850
0.699079 0.174427 0.064801
0.732194 0.178308 0.067752
0.765310 0.182190 0.070703
0.794573 0.185816 0.073918
0.814208 0.188804 0.077792
0.833842 0.191792 0.081666
0.853476 0.194781 0.085540
0.873110 0.197769 0.089415
0.884154 0.199992 0.093235
0.893767 0.202088 0.097047
0.903379 0.204183 0.100859
0.912992 0.206278 0.104671
0.920633 0.208354 0.108315
0.925648 0.210403 0.111733
0.930662 0.212452 0.115152
0.935676 0.214501 0.118571
0.940691 0.216550 0.121990
0.082020 0.189239 0.112513
0.112526 0.188581 0.107643
0.143032 0.187923 0.102773
0.173538 0.187265 0.097902
0.204044 0.186607 0.093032
0.247213 0.184142 0.087024
0.299881 0.180323 0.080164
0.352549 0.176504 0.073303
0.405217 0.172685 0.066442
0.456666 0.169925 0.060710
0.500806 0.173514 0.061745
0.544947 0.177104 0.062780
0.589087 0.180693 0.063815
0.633227 0.184283 0.064851
0.669324 0.187832 0.067290
0.702203 0.191365 0.070291
0.735081 0.194897 0.073291
0.767960 0.198430 0.076292
0.797001 0.201757 0.079550
0.816449 0.204571 0.083449
0.835896 0.207385 0.087348
0.855344 0.210199 0.091247
0.874791 0.213013 0.095146
0.885670 0.215211 0.098981
0.895120 0.217307 0.102805
0.904571 0.219402 0.106630
0.914021 0.221497 0.110454
0.921485 0.223621 0.114105
0.926301 0.225782 0.117523
0.931116 0.227944 0.120942
0.935931 0.230105 0.124361
0.940746 0.232266 0.127780
0.086817 0.218134 0.125527
0.113401 0.219829 0.122400
0.139985 0.221524 0.119273
0.166568 0.223219 0.116146
0.193152 0.224915 0.113018
0.236889 0.220947 0.105744
0.293492 0.212733 0.095360
0.350094 0.204518 0.084975
0.406697 0.196304 0.074591
0.461476 0.189701 0.065847
0.505317 0.192768 0.066944
0.549159 0.195834 0.068042
0.593000 0.198901 0.069139
0.636842 0.201968 0.070237
0.672684 0.205118 0.072729
0.705326 0.208302 0.075780
0.737968 0.211486 0.078830
0.770611 0.214670 0.081881
0.799430 0.217699 0.085181
0.818690 0.220338 0.089105
0.837951 0.222978 0.093029
0.857211 0.225618 0.096953
0.876472 0.228257 0.100877
0.887185 0.230431 0.104726
0.896474 0.232526 0.108563
0.905763 0.234621 0.112400
0.915051 0.236717 0.116237
0.922337 0.238888 0.119894
0.926953 0.241162 0.123313
0.931569 0.243435 0.126732
0.936185 0.245708 0.130151
0.940801 0.247981 0.133570
0.091614 0.247028 0.138540
0.114276 0.251077 0.137156
0.136938 0.255125 0.135773
0.159599 0.259174 0.134389
0.182261 0.263222 0.133005
0.226565 0.257752 0.124464
0.287102 0.245142 0.110556
0.347640 0.232532 0.096648
0.408177 0.219923 0.082739
0.466286 0.209478 0.070984
0.509828 0.212021 0.072144
0.553371 0.214565 0.073303
0.596914 0.217109 0.074463
0.640456 0.219652 0.075623
0.676044 0.222404 0.078169
0.708450 0.225240 0.081269
0.740855 0.228075 0.084370
0.773261 0.230910 0.087470
0.801858 0.233640 0.090813
0.820931 0.236105 0.094762
0.840005 0.238571 0.098711
0.859079 0.241036 0.102659
0.878153 0.243501 0.106608
0.888701 0.245650 0.110472
0.897827 0.247745 0.114321
0.906954 0.249840 0.118170
0.916081 0.251936 0.122020
0.923189 0.254156 0.125684
0.927606 0.256541 0.129103
0.932023 0.258926 0.132522
0.936440 0.261312 0.135941
0.940856 0.263697 0.139360
0.096884 0.276931 0.152255
0.115914 0.283094 0.152502
0.134943 0.289258 0.152749
0.153972 0.295421 0.152997
0.173002 0.301585 0.153244
0.217181 0.295107 0.143832
0.280222 0.279148 0.127175
0.343264 0.263188 0.110519
0.406305 0.247229 0.093863
0.466666 0.233741 0.079658
0.510942 0.235081 0.080165
0.555217 0.236420 0.080672
0.599493 0.237760 0.081179
0.643768 0.239099 0.081686
0.679394 0.241252 0.084080
0.711559 0.243729 0.087228
0.743725 0.246207 0.090376
0.775890 0.248685 0.093525
0.804263 0.251109 0.096910
0.823154 0.253398 0.100887
0.842044 0.255688 0.104865
0.860935 0.257977 0.108842
0.879825 0.260266 0.112819
0.890213 0.262392 0.116707
0.899183 0.264491 0.120579
0.908154 0.266590 0.124452
0.917124 0.268689 0.128324
0.924063 0.270964 0.132007
0.928295 0.273474 0.135439
0.932527 0.275984 0.138870
0.936758 0.278494 0.142301
0.940990 0.281004 0.145732
0.104990 0.312884 0.170176
0.122127 0.319732 0.171382
0.139264 0.326580 0.172588
0.156400 0.333428 0.173794
0.173537 0.340277 0.175000
0.213433 0.335764 0.167088
0.270398 0.322731 0.152336
0.327364 0.309698 0.137585
0.384329 0.296665 0.122833
0.440470 0.284929 0.109556
0.491669 0.280977 0.105119
0.542867 0.277024 0.100683
0.594066 0.273072 0.096247
0.645264 0.269119 0.091811
0.682681 0.269466 0.092819
0.714585 0.271533 0.096004
0.746489 0.273600 0.099190
0.778393 0.275667 0.102376
0.806533 0.277744 0.105802
0.825261 0.279847 0.109829
0.843990 0.281949 0.113857
0.862719 0.284052 0.117884
0.881448 0.286154 0.121911
0.891705 0.288275 0.125880
0.900551 0.290399 0.129840
0.909397 0.292523 0.133799
0.918243 0.294647 0.137759
0.925068 0.297021 0.141529
0.929200 0.299731 0.145048
0.933333 0.302440 0.148566
0.937465 0.305149 0.152084
0.941597 0.307858 0.155603
0.113096 0.348836 0.188097
0.128340 0.356369 0.190262
0.143584 0.363902 0.192427
0.158828 0.371435 0.194592
0.174073 0.378969 0.196756
0.209685 0.376422 0.190343
0.260574 0.366315 0.177497
0.311463 0.356208 0.164651
0.362352 0.346101 0.151804
0.414274 0.336117 0.139453
0.472396 0.326873 0.130074
0.530517 0.317628 0.120694
0.588638 0.308384 0.111315
0.646760 0.299140 0.101935
0.685968 0.297681 0.101558
0.717610 0.299337 0.104781
0.749253 0.300993 0.108004
0.780896 0.302649 0.111227
0.808802 0.304380 0.114694
0.827369 0.306295 0.118771
0.845936 0.308211 0.122848
0.864503 0.310127 0.126925
0.883070 0.312043 0.131002
0.893198 0.314158 0.135053
0.901919 0.316307 0.139100
0.910640 0.318456 0.143147
0.919362 0.320604 0.147193
0.926073 0.323079 0.151051
0.930106 0.325987 0.154657
0.934138 0.328895 0.158262
0.938171 0.331804 0.161868
0.942203 0.334712 0.165473
0.121202 0.384789 0.206018
0.134554 0.393007 0.209142
0.147905 0.401225 0.212265
0.161257 0.409442 0.215389
0.174608 0.417660 0.218512
0.205937 0.417079 0.213599
0.250750 0.409898 0.202658
0.295563 0.402717 0.191717
0.340375 0.395536 0.180775
0.388078 0.387305 0.169351
0.453123 0.372768 0.155028
0.518167 0.358232 0.140706
0.583211 0.343696 0.126383
0.648256 0.329160 0.112060
0.689255 0.325896 0.110297
0.720636 0.327141 0.113557
0.752017 0.328387 0.116818
0.783398 0.329632 0.120078
0.811072 0.331015 0.123586
0.829477 0.332744 0.127713
0.847882 0.334473 0.131840
0.866287 0.336202 0.135967
0.884692 0.337931 0.140093
0.894690 0.340041 0.144226
0.903287 0.342215 0.148360
0.911884 0.344388 0.152494
0.920480 0.346562 0.156628
0.927078 0.349136 0.160573
0.931011 0.352243 0.164265
0.934944 0.355351 0.167958
0.938877 0.358459 0.171651
0.942810 0.361566 0.175344
0.129308 0.420741 0.223940
0.140767 0.429644 0.228022
0.152226 0.438547 0.232104
0.163685 0.447450 0.236186
0.175143 0.456352 0.240269
0.202189 0.457736 0.236855
0.240926 0.453482 0.227818
0.279662 0.449227 0.218782
0.318398 0.444972 0.209746
0.361882 0.438492 0.199249
0.433850 0.418664 0.179983
0.505817 0.398836 0.160717
0.577784 0.379008 0.141451
0.649752 0.359180 0.122185
0.692542 0.354111 0.119036
0.723662 0.354945 0.122334
0.754782 0.355780 0.125632
0.785901 0.356614 0.128930
0.813342 0.357650 0.132479
0.831585 0.359193 0.136655
0.849828 0.360735 0.140832
0.868071 0.362277 0.145008
0.886314 0.363819 0.149185
0.896182 0.365924 0.153399
0.904655 0.368123 0.157620
0.913127 0.370321 0.161841
0.921599 0.372520 0.166063
0.928083 0.375193 0.170094
0.931917 0.378500 0.173874
0.935750 0.381807 0.177654
0.939583 0.385113 0.181434
0.943416 0.388420 0.185214
0.138989 0.456891 0.243869
0.149347 0.465847 0.248528
0.159705 0.474803 0.253187
0.170063 0.483759 0.257845
0.180421 0.492715 0.262504
0.204564 0.495098 0.260202
0.239048 0.492551 0.252679
0.273531 0.490004 0.245157
0.308014 0.487456 0.237635
0.347533 0.482531 0.228389
0.417262 0.463334 0.208805
0.486992 0.444138 0.189220
0.556722 0.424941 0.169636
0.626452 0.405745 0.150052
0.672857 0.398574 0.144234
0.709932 0.396213 0.143923
0.747007 0.393853 0.143611
0.784081 0.391493 0.143300
0.815730 0.390186 0.144288
0.833811 0.391515 0.148523
0.851892 0.392844 0.152758
0.869973 0.394172 0.156994
0.888055 0.395501 0.161229
0.897816 0.397574 0.165534
0.906190 0.399771 0.169851
0.914565 0.401968 0.174168
0.922939 0.404164 0.178485
0.929336 0.406903 0.182636
0.933097 0.410365 0.186566
0.936857 0.413826 0.190495
0.940617 0.417288 0.194424
0.944377 0.420749 0.198354
0.149301 0.493119 0.264603
0.158874 0.501876 0.269685
0.168448 0.510633 0.274767
0.178021 0.519390 0.279849
0.187594 0.528147 0.284931
0.209388 0.531141 0.283586
0.240348 0.529814 0.277420
0.271307 0.528487 0.271255
0.302267 0.527160 0.265090
0.337922 0.523709 0.257226
0.401750 0.507514 0.239174
0.465578 0.491318 0.221121
0.529405 0.475122 0.203068
0.593233 0.458926 0.185015
0.643982 0.449536 0.176015
0.689499 0.442867 0.170636
0.735016 0.436199 0.165257
0.780533 0.429530 0.159878
0.818165 0.425082 0.157264
0.836084 0.426187 0.161561
0.854004 0.427291 0.165859
0.871923 0.428396 0.170156
0.889842 0.429501 0.174454
0.899506 0.431531 0.178854
0.907793 0.433715 0.183270
0.916080 0.435899 0.187687
0.924368 0.438084 0.192104
0.930688 0.440874 0.196386
0.934386 0.444473 0.200490
0.938084 0.448071 0.204594
0.941782 0.451670 0.208697
0.945480 0.455268 0.212801
0.159612 0.529347 0.285336
0.168401 0.537905 0.290841
0.177190 0.546463 0.296347
0.185979 0.555020 0.301852
0.194768 0.563578 0.307357
0.214212 0.567185 0.306969
0.241648 0.567078 0.302161
0.269084 0.566971 0.297353
0.296520 0.566864 0.292545
0.328311 0.564888 0.286064
0.386237 0.551693 0.269543
0.444163 0.538498 0.253021
0.502089 0.525303 0.236500
0.560014 0.512108 0.219979
0.615107 0.500498 0.207797
0.669066 0.489521 0.197350
0.723025 0.478544 0.186903
0.776984 0.467567 0.176456
0.820600 0.459978 0.170240
0.838357 0.460859 0.174600
0.856115 0.461739 0.178960
0.873872 0.462620 0.183319
0.891630 0.463500 0.187679
0.901195 0.465488 0.192173
0.909396 0.467659 0.196689
0.917596 0.469831 0.201206
0.925796 0.472003 0.205722
0.932040 0.474845 0.210136
0.935676 0.478581 0.214414
0.939312 0.482316 0.218692
0.942947 0.486051 0.222970
0.946583 0.489787 0.227248
0.169924 0.565576 0.306070
0.177928 0.573934 0.311998
0.185933 0.582293 0.317927
0.193937 0.590651 0.323856
0.201942 0.599009 0.329784
0.219036 0.603228 0.330353
0.242948 0.604341 0.326902
0.266861 0.605455 0.323451
0.290773 0.606569 0.320001
0.318701 0.606067 0.314901
0.370724 0.595872 0.299912
0.422748 0.585678 0.284922
0.474772 0.575484 0.269932
0.526796 0.565290 0.254943
0.586232 0.551460 0.239578
0.648633 0.536175 0.224064
0.711034 0.520890 0.208549
0.773436 0.505605 0.193035
0.823035 0.494874 0.183216
0.840631 0.495531 0.187638
0.858226 0.496187 0.192060
0.875822 0.496843 0.196482
0.893418 0.497500 0.200904
0.902885 0.499444 0.205493
0.910998 0.501604 0.210109
0.919111 0.503763 0.214724
0.927224 0.505923 0.219340
0.933392 0.508816 0.223886
0.936965 0.512689 0.228338
0.940539 0.516561 0.232791
0.944112 0.520433 0.237243
0.947686 0.524306 0.241695
0.180393 0.600024 0.326913
0.187752 0.608087 0.333169
0.195111 0.616150 0.339425
0.202469 0.624213 0.345681
0.209828 0.632276 0.351937
0.224891 0.636919 0.353338
0.245731 0.638997 0.351099
0.266571 0.641074 0.348859
0.287411 0.643152 0.346620
0.311945 0.643846 0.342775
0.358643 0.636236 0.329299
0.405341 0.628627 0.315823
0.452040 0.621017 0.302347
0.498738 0.613407 0.288871
0.560151 0.598651 0.271532
0.627451 0.581036 0.252646
0.694751 0.563421 0.233761
0.762051 0.545805 0.214876
0.815776 0.533166 0.202322
0.835565 0.532965 0.205597
0.855354 0.532764 0.208872
0.875143 0.532563 0.212146
0.894932 0.532362 0.215421
0.904635 0.534143 0.219928
0.912657 0.536254 0.224640
0.920680 0.538365 0.229352
0.928702 0.540477 0.234064
0.934797 0.543386 0.238739
0.938323 0.547360 0.243365
0.941848 0.551334 0.247992
0.945374 0.555308 0.252619
0.948899 0.559282 0.257245
0.191256 0.630021 0.348033
0.198316 0.637549 0.354376
0.205376 0.645076 0.360719
0.212436 0.652604 0.367062
0.219496 0.660132 0.373405
0.233320 0.664730 0.375328
0.252218 0.667132 0.373935
0.271116 0.669533 0.372542
0.290013 0.671934 0.371149
0.312328 0.673126 0.368240
0.355141 0.667061 0.356234
0.397954 0.660995 0.344227
0.440767 0.654929 0.332220
0.483581 0.648864 0.320213
0.541056 0.636416 0.303916
0.604397 0.621416 0.285902
0.667737 0.606415 0.267889
0.731077 0.591415 0.249875
0.784283 0.579946 0.236752
0.812153 0.577304 0.235856
0.840023 0.574663 0.234959
0.867893 0.572021 0.234063
0.895763 0.569380 0.233166
0.906535 0.570695 0.237151
0.914457 0.572669 0.241951
0.922380 0.574644 0.246750
0.930303 0.576618 0.251549
0.936336 0.579455 0.256349
0.939849 0.583441 0.261150
0.943362 0.587427 0.265951
0.946875 0.591413 0.270751
0.950388 0.595400 0.275552
0.202119 0.660018 0.369152
0.208880 0.667010 0.375582
0.215641 0.674003 0.382013
0.222402 0.680995 0.388443
0.229164 0.687988 0.394873
0.241750 0.692541 0.397317
0.258705 0.695267 0.396771
0.275660 0.697992 0.396225
0.292616 0.700717 0.395679
0.312710 0.702407 0.393705
0.351638 0.697885 0.383168
0.390567 0.693363 0.372630
0.429495 0.688842 0.362093
0.468424 0.684320 0.351555
0.521961 0.674181 0.336300
0.581342 0.661796 0.319158
0.640723 0.649410 0.302016
0.700104 0.637024 0.284874
0.752790 0.626726 0.271182
0.788741 0.621644 0.266114
0.824692 0.616562 0.261047
0.860642 0.611480 0.255979
0.896593 0.606398 0.250911
0.908435 0.607247 0.254375
0.916258 0.609084 0.259262
0.924081 0.610922 0.264148
0.931904 0.612759 0.269034
0.937874 0.615523 0.273959
0.941375 0.619522 0.278934
0.944876 0.623520 0.283909
0.948376 0.627519 0.288884
0.951877 0.631518 0.293860
0.212982 0.690015 0.390271
0.219444 0.696472 0.396789
0.225907 0.702929 0.403306
0.232369 0.709386 0.409824
0.238831 0.715843 0.416341
0.250179 0.720353 0.419306
0.265192 0.723401 0.419607
0.280205 0.726450 0.419907
0.295218 0.729499 0.420208
0.313092 0.731687 0.419170
0.348136 0.728709 0.410102
0.383180 0.725732 0.401034
0.418223 0.722754 0.391966
0.453267 0.719776 0.382897
0.502866 0.711946 0.368685
0.558287 0.702176 0.352414
0.613709 0.692405 0.336144
0.669130 0.682634 0.319873
0.721297 0.673506 0.305612
0.765329 0.665983 0.296373
0.809360 0.658461 0.287134
0.853392 0.650938 0.277895
0.897424 0.643416 0.268656
0.910334 0.643799 0.271599
0.918058 0.645499 0.276573
0.925781 0.647200 0.281546
0.933505 0.648900 0.286520
0.939413 0.651591 0.291568
0.942901 0.655602 0.296718
0.946389 0.659613 0.301868
0.949877 0.663624 0.307017
0.953366 0.667636 0.312167
0.223845 0.720013 0.411391
0.230008 0.725934 0.417995
0.236172 0.731856 0.424600
0.242335 0.737777 0.431205
0.248499 0.743699 0.437809
0.258609 0.748164 0.441295
0.271680 0.751536 0.442443
0.284750 0.754909 0.443590
0.297820 0.758281 0.444737
0.313475 0.760967 0.444635
0.344634 0.759534 0.437036
0.375792 0.758100 0.429437
0.406951 0.756666 0.421838
0.438110 0.755233 0.414239
0.483771 0.749712 0.401069
0.535233 0.742556 0.385670
0.586694 0.735400 0.370271
0.638156 0.728243 0.354873
0.689804 0.720286 0.340042
0.741916 0.710323 0.326632
0.794029 0.700360 0.313221
0.846142 0.690397 0.299811
0.898255 0.680434 0.286401
0.912234 0.680351 0.288823
0.919858 0.681914 0.293884
0.927482 0.683478 0.298944
0.935106 0.685041 0.304005
0.940952 0.687659 0.309178
0.944427 0.691683 0.314502
0.947903 0.695706 0.319826
0.951379 0.699730 0.325150
0.954854 0.703754 0.330474
0.233715 0.741408 0.430903
0.239772 0.746847 0.437445
0.245829 0.752287 0.443988
0.251886 0.757726 0.450530
0.257942 0.763166 0.457072
0.267379 0.767426 0.460790
0.279350 0.770802 0.462389
0.291321 0.774178 0.463988
0.303292 0.777554 0.465587
0.317620 0.780360 0.466038
0.346089 0.779745 0.459599
0.374559 0.779129 0.453160
0.403028 0.778514 0.446721
0.431497 0.777898 0.440282
0.473935 0.773793 0.428408
0.521960 0.768291 0.414361
0.569985 0.762789 0.400314
0.618010 0.757288 0.386267
0.667222 0.750860 0.372284
0.719401 0.742117 0.358459
0.771579 0.733374 0.344635
0.823758 0.724632 0.330810
0.875936 0.715889 0.316985
0.894542 0.715323 0.317182
0.907552 0.716120 0.319715
0.920562 0.716917 0.322248
0.933572 0.717714 0.324780
0.942486 0.719812 0.328561
0.945938 0.723645 0.334006
0.949391 0.727479 0.339451
0.952843 0.731312 0.344896
0.956296 0.735145 0.350341
0.243420 0.761369 0.450148
0.249402 0.766335 0.456603
0.255384 0.771302 0.463058
0.261366 0.776268 0.469513
0.267348 0.781234 0.475968
0.276205 0.785264 0.479869
0.287217 0.788590 0.481854
0.298230 0.791916 0.483839
0.309242 0.795243 0.485825
0.322393 0.798105 0.486765
0.348372 0.798187 0.481434
0.374351 0.798269 0.476103
0.400330 0.798351 0.470772
0.426309 0.798433 0.465441
0.465642 0.795593 0.454907
0.510318 0.791586 0.442292
0.554994 0.787578 0.429677
0.599669 0.783571 0.417061
0.646126 0.778733 0.404161
0.697034 0.771821 0.390548
0.747943 0.764909 0.376935
0.798851 0.757996 0.363322
0.849760 0.751084 0.349709
0.873584 0.750032 0.347396
0.892895 0.749958 0.346965
0.912205 0.749883 0.346535
0.931515 0.749808 0.346104
0.944019 0.751312 0.348240
0.947447 0.754922 0.353797
0.950874 0.758531 0.359354
0.954302 0.762140 0.364911
0.957730 0.765749 0.370468
0.253125 0.781330 0.469392
0.259033 0.785824 0.475760
0.264940 0.790317 0.482128
0.270847 0.794810 0.488496
0.276755 0.799303 0.494864
0.285031 0.803101 0.498948
0.295085 0.806378 0.501319
0.305138 0.809654 0.503691
0.315192 0.812931 0.506062
0.327165 0.815850 0.507491
0.350654 0.816630 0.503268
0.374142 0.817409 0.499045
0.397631 0.818188 0.494822
0.421120 0.818967 0.490600
0.457350 0.817394 0.481405
0.498676 0.814881 0.470222
0.540002 0.812367 0.459039
0.581328 0.809854 0.447856
0.625030 0.806607 0.436039
0.674668 0.801525 0.422637
0.724307 0.796443 0.409236
0.773945 0.791361 0.395835
0.823583 0.786279 0.382434
0.852627 0.784742 0.377610
0.878238 0.783795 0.374216
0.903848 0.782849 0.370822
0.929459 0.781903 0.367428
0.945552 0.782813 0.367919
0.948955 0.786198 0.373587
0.952358 0.789583 0.379256
0.955761 0.792968 0.384925
0.959163 0.796353 0.390594
0.262830 0.801292 0.488637
0.268663 0.805312 0.494918
0.274496 0.809332 0.501199
0.280328 0.813352 0.507479
0.286161 0.817372 0.513760
0.293858 0.820939 0.518027
0.302952 0.824165 0.520785
0.312047 0.827392 0.523542
0.321142 0.830619 0.526299
0.331938 0.833595 0.528217
0.352936 0.835072 0.525102
0.373934 0.836548 0.521988
0.394933 0.838025 0.518873
0.415931 0.839501 0.515759
0.449057 0.839195 0.507903
0.487034 0.838176 0.498152
0.525011 0.837156 0.488401
0.562988 0.836137 0.478650
0.603933 0.834480 0.467916
0.652302 0.831228 0.454727
0.700670 0.827977 0.441537
0.749039 0.824725 0.428347
0.797407 0.821474 0.415158
0.831669 0.819451 0.407824
0.863580 0.817633 0.401467
0.895492 0.815815 0.395110
0.927403 0.813997 0.388752
0.947086 0.814313 0.387597
0.950463 0.817474 0.393378
0.953841 0.820635 0.399159
0.957219 0.823796 0.404940
0.960597 0.826957 0.410721
0.271543 0.817307 0.506534
0.277375 0.820939 0.512696
0.283208 0.824571 0.518858
0.289041 0.828203 0.525019
0.294873 0.831836 0.531181
0.302205 0.835186 0.535505
0.310661 0.838326 0.538451
0.319118 0.841466 0.541396
0.327574 0.844605 0.544342
0.337541 0.847578 0.546541
0.356572 0.849549 0.544263
0.375603 0.851519 0.541984
0.394634 0.853490 0.539705
0.413665 0.855461 0.537427
0.444077 0.856120 0.530753
0.479040 0.856253 0.522322
0.514004 0.856386 0.513891
0.548967 0.856520 0.505459
0.587237 0.856111 0.495868
0.633769 0.854349 0.483375
0.680302 0.852586 0.470883
0.726835 0.850823 0.458391
